X:1
T:Danket dem Herrn!
T:Johann Heinrich Rolle
T:Danket dem Herrn!
T:118. Psalm u. Choral
T:CPDL   —   Creative Commons Attribution Non Commercial 3.0
T:CPDL   —   Creative Commons Attribution Non Commercial 3.0
T:CPDL   —   Creative Commons Attribution Non Commercial 3.0
T:CPDL   —   Creative Commons Attribution Non Commercial 3.0
T:CPDL   —   Creative Commons Attribution Non Commercial 3.0
T:CPDL   —   Creative Commons Attribution Non Commercial 3.0
C:Johann Heinrich Rolle
Z:CPDL   —   Creative Commons Attribution Non Commercial 3.0
%%score [ ( 1 2 ) 3 4 ]
L:1/8
Q:1/4=72
M:4/4
K:G
V:1 treble nm="Sopran\nAlt"
V:2 treble 
V:3 treble-8 nm="Tenor"
V:4 bass nm="Bass"
V:1
"^Langsam"!mf! B4 A2 GF |!>(! G6!>)! z2 |!f! d4 c2!>(! BA | %3
w: Dan- ket dem _|Herrn!|Dan- ket dem _|
w: |||
 !fermata!B4!>)! z!mf![Q:1/4=88]"^Belebter""^Soli" GGA |!>(! B2 A2!>)! z!f!"^Chor" dGA | %5
w: Herrn! Denn er ist|freund- lich, denn er ist|
w: ||
!>(! B2 A2!>)! z"^Soli"!mf! e!>!ee | !>!edgd!>(! d2 c2!>)! | !breath!B"^Chor"!f!e!>!ee !>!edgd | %8
w: freund- lich, und sei- ne|Gü- te wäh- ret e- wig-|lich, und sei- ne Gü- te wäh- ret|
w: |||
!>(! d2 c2!>)! B2 !fermata!z"^Solo"[Q:1/4=72]"^Langsam"!mf! z |!<(! z8!<)! | %10
w: e- wig- lich!||
w: ||
 z2[Q:1/4=88]"^Belebt"!mf!"^Chor" dd !>!d!<(!dd!<)!d | !>!dd!f!ge!>(! d2 c2!>)! | %12
w: Sei- ne Gü- te, sei- ne|Gü- te wäh- ret e- wig-|
w: ||
 B2!p! ge!>(! d2 c2!>)! | B2 !fermata!z[Q:1/4=72]"^Langsam"!mf!"^Solo" G!<(! c>c c2-!<)! | %14
w: lich, wäh- ret e- wig-|lich. Es sa- ge nun|
w: ||
 c!f!c!>(! c2 e>d!>)! c2 | z2!mf!"^Chor"[Q:1/4=88]"^Belebter" ed !>!=fe"^cresc."cB | %16
w: _ das Haus A- * rons:|Sei- ne Gü- te, sei- ne|
w: ||
 !>!dccA!>(! G2 =F2!>)! | E2!p! cA G2 =F2 | E2 !fermata!z"^Solo"[Q:1/4=72]"^Langsam" z z4 | z8 | %20
w: Gü- te wäh- ret e- wig-|lich, wäh- ret e- wig-|lich.||
w: ||||
 z2!mf!"^Chor"[Q:1/4=88]"^Belebter" ee !>!e"^cresc."eee | !>!eee=f!>(! e2 d2!>)! | %22
w: Sei- ne Gü- te, sei- ne|Gü- te wäh- ret e- wig-|
w: ||
 c2!f! dd !>!d"^cresc."ddd | !>!ddge!>(! d2 c2!>)! | B2!f! d2- de/d/ cB | %25
w: lich, sei- ne Gü- te, sei- ne|Gü- te wäh- ret e- wig-|lich, e- * * * * wig-|
w: |||
 A2!p!!<(! BA !>!cB!<)!dc | !>!BA!f! d6 | d2!p! BA!<(! !>!cB!<)!dc | !>!BA!f! (e4 dc | %29
w: lich, sei- ne Gü- te, sei- ne|Gü- te wäh-|ret, sei- ne Gü- te, sei- ne|Gü- te wäh- * *|
w: ||||
 B2) cA!>(! B2 A2!>)! | G2!ff![Q:1/4=72]"^Langsam" c4 BA | G2!f! G4 G2 | !fermata!G4 !fermata!z2 |: %33
w: * ret * e- wig-|lich, e- wig- *|lich, e- wig-|lich.|
w: ||||
"^Choral"[Q:1/4=80]"^Etwas bewegt"!mf!!<(! d2 | d2!<)! d2 e2!>(! e2 |!f! !fermata!d6!>)!!p! B2 | %36
w: 1.  Wir|dan- ken al- le|Gott, mit|
w: der|gro- ße Din- ge|tut an|
 c2 B2"^dim." A2 B2 | A4 !fermata!G2 :| A2 |!p!!<(! A2 A2!<)! B2!mf!!>(! B2!>)! | %40
w: Her- zen und mit|Wor- ten,|1.  Der|mäch- tig uns er-|
w: uns zu al- len|Or- ten.|||
 !fermata!A6!p! A2 |!<(! B2 d2 d2!<)!!>(! ^c2!>)! | !fermata!d6!f! d2 | e2!>(! d2 =c2!>)! B2 | %44
w: hält und|von der Kind- heit|an, mehr|1.  wohl- tut als ein|
w: ||||
 !fermata!c6!mf! B2 | A2 B2!>(! A2 A2 | !fermata!G4!>)! z2 |] %47
w: Mensch ver-|steh'n und zäh- len|kann.|
w: |||
V:2
 G4 E2 DC | B,6 x2 | G4 A2 GF | G4 x DDF | G2 F2 x GGF | G2 F2 x GGG | GGBG G2 F2 | GGGG GGBG | %8
w: ||||||||
 G2 F2 G2 x D | G2 GG!f! B>A G2 | x2 BA cBGF | AGGG G2 F2 | G2 GG G2 F2 | G2 x z z4 | z8 | %15
w: * * * Es|sa- ge nun Is- ra- el:||||||
 x2 GG GGGG | GGG=F E2 D2 | C2 G=F E2 D2 | C2 x x x4 | x8 | x2 EE ^GAAG | BAAA A2 ^G2 | %22
w: |||||||
 A2 BA cBGF | AGGG G2 F2 | G2 B2- Bc/B/ AG | F2 GF AGBA | GF D6 | D2 GF AGBA | GF (c4 BA | %29
w: |||||||
 G2) G2 G2 F2 | G2 G4 G2 | G2 E4 DC | B,4 x2 |: G2 | F2 G2 G2 G2 | G6 G2 | A2 G2 F2 G2 | %37
w: ||||||||
 (E2 F2) G2 :| F2 | E2 F2 D2 G2 | F6 F2 | G2 A2 G2 E2 | F6 G2 | G2 G2 E2 E2 | E6 =G2 | %45
w: ||||||||
 F2 G2 G2 F2 | D4 x2 |] %47
w: ||
V:3
!mf! d4 c2 BA |!>(! G6!>)! z2 |!f! B4 e2!>(! d2 | !fermata!d4!>)! z!mf! BBc | %4
w: Dan- ket dem _|Herrn!|Dan- ket dem|Herrn! Denn er ist|
w: ||||
!>(! d2 d2!>)! z!f! ddd |!>(! d2 d2!>)! z!mf! c!>!cc | !>!cBdB!>(! B2 A2!>)! | %7
w: freund- lich, denn er ist|freund- lich, und sei- ne|Gü- te wäh- ret e- wig-|
w: |||
 !breath!B!f!c!>!cc !>!cBdB |!>(! B2 A2!>)! G2 !fermata!z z | z8 | z2!mf! dd !>!d!<(!dd!<)!d | %11
w: lich, und sei- ne Gü- te wäh- ret|e- wig- lich!||Sei- ne Gü- te, sei- ne|
w: ||||
 !>!dd!f!dc!>(! B2 A2!>)! | G2!p! dc!>(! B2 Ad!>)! | d2 !fermata!z z z4 | z8 | %15
w: Gü- te wäh- ret e- wig-|lich, wäh- ret e- wig- *|lich.||
w: ||||
 z2!mf! cd !>!Bc"^cresc."cd | !>!Bccc!>(! c2 B2!>)! | c2!p! cc c2 B2 | G2 !fermata!z z z4 | z8 | %20
w: Sei- ne Gü- te, sei- ne|Gü- te wäh- ret e- wig-|lich, wäh- ret e- wig-|lich.||
w: |||||
 z2!mf! cB !>!d"^cresc."cee | !>!eeed!>(! c2 B2!>)! | A2!f! d6 | d2 dc!>(! B2 A2!>)! | G4!f! e3 g | %25
w: Sei- ne Gü- te, sei- ne|Gü- te wäh- ret e- wig-|lich, wäh-|ret, wäh- ret e- wig-|lich, e- wig-|
w: |||||
 d2 z2 z4 | z2!p! BA!<(! !>!cB!<)!dc | !>!BA!f! d6 | D2!f! FF !>!GGAA | (B2 e2!>(! d2 c2)!>)! | %30
w: lich,|sei- ne Gü- te, sei- ne|Gü- te wäh-|ret, sei- ne Gü- te wäh- ret|e- * * wig-|
w: |||||
 B2!ff! e4 dc | B2!f! c4 BA | !fermata!G4 !fermata!z2 |:!mf!!<(! B2 | A2!<)! B2 c2!>(! c2 | %35
w: lich, e- wig- *|lich, e- wig- *|lich.|2.  Lob,|Ehr und Preis sei|
w: |||und|sei- nem heil'- gen|
!f! !fermata!B6!>)!!p! d2 | d2 d2"^dim." d2 d2 | c4 !fermata!B2 :| d2 | %39
w: Gott, dem|Va- ter und dem|Soh- ne|2.  er-|
w: Geist! Er,|der vom Him- mels-|thro- ne||
!p!!<(! ^c2 d2!<)! B2!mf!!>(! d2!>)! | !fermata!d6!p! d2 |!<(! d2 d2 B2!<)!!>(! A2!>)! | %42
w: bar- mend auf uns|sieht, bleibt,|wie er e- wig|
w: |||
 !fermata!A6!f! B2 | =c2!>(! B2 cA!>)! ^G2 | !fermata!A6!mf! d2 | d2 d2!>(! e2 dc | %46
w: war: un-|2.  end- lich groß _ und|gut; Lob|sei ihm im- mer- *|
w: ||||
 !fermata!B4!>)! z2 |] %47
w: dar.|
w: |
V:4
!mf! [G,,G,]4 C,2 D,2 |!>(! E,6!>)! z2 |!f! B,,4 C,2!>(! D,2 | !fermata![G,,G,]4!>)! z!mf! G,G,G, | %4
w: ||||
!>(! G,2 D,2!>)! z!f! B,,B,,D, |!>(! G,2 D,2!>)! z!mf! C,!>!E,C, | !>!G,G,G,G,!>(! D,2 D,2!>)! | %7
w: |||
 !breath!G,!f!C,!>!E,C, !>!G,G,G,G, |!>(! D,2 D,2!>)! G,,2 !fermata!z z | z8 | %10
w: |||
 z2!mf! G,F, !>!A,!<(!G,B,!<)!A, | !>!CB,!f!B,,C,!>(! D,2 D,2!>)! | E,2!p! B,,C,!>(! D,2 D,2!>)! | %13
w: |||
 [G,,G,]2 !fermata!z z z4 | z8 | z2!mf! C,B,, !>!D,C,"^cresc."E,D, | !>!=F,E,E,F,!>(! G,2 G,2!>)! | %17
w: ||||
 A,2!p! E,=F, G,2 G,,2 | C,2 !fermata!z E, A,>A, A,2 |!<(! A,A,!<)!!>!A,A, C>!>(!B, A,2!>)! | %20
w: |* Es sa- gen nun,|die den Her- ren fürch- * ten:|
 z2!mf! A,^G, !>!B,"^cresc."A,CB, | !>!DCC,D,!>(! E,2 E,2!>)! | A,2!f! G,F, !>!A,"^cresc."G,B,A, | %23
w: |||
 !>!CB,B,,C,!>(! D,2 D,2!>)! | G,4!f! C,3 C, | D,2 z2 z4 | z2!p! G,F,!<(! !>!A,G,!<)!B,A, | %27
w: ||||
 !>!G,F,!f! D,6 | D,2!f! D,D, !>!E,E,F,F, | (G,2 C,2!>(! D,2 D,2)!>)! | G,2 z2!ff! G,2 G,2 | %31
w: |||* e- wig-|
 G,2 z2!f! G,,2 G,,2 | !fermata!G,,4 !fermata!z2 |:!mf!!<(! G,2 | D,2!<)! G,2 C,2!>(! E,2 | %35
w: lich, e- wig-|lich.|||
!f! !fermata!G,6!>)!!p! G,2 | F,2 G,2"^dim." D,C, B,,2 | (C,2 D,2) !fermata![G,,G,]2 :| D,2 | %39
w: ||||
!p!!<(! A,2 D,2!<)! G,2!mf!!>(! B,,2!>)! | !fermata!D,6!p! D,2 |!<(! G,2 F,2 E,2!<)!!>(! A,2!>)! | %42
w: |||
 !fermata!D,6!f! G,2 | =C,2!>(! G,2 A,2!>)! E,2 | !fermata!A,,6!mf! B,,2 | D,2 G,2!>(! C,2 D,2 | %46
w: ||||
 !fermata![G,,G,]4!>)! z2 |] %47
w: |

